X: 98
T: Arabacı
C: Turhan Sözkesen
O: Turkey
F: http://compmusic.upf.edu/node/140
N: hicaz--turku--raksaksagi--arabaci--istanbul
N: makam= hicaz
N: form= turku
N: usul= raksaksagi = 9/8
M: 9/8
L: 1/16
K: C _7/8B ^f ^c 
Q: 1/4=240
%%MIDI tuningsystem comma53
c4 d4 c2B2 A2A2 G2 | A2 B2c4B2 B2A2 A4  | \
w:  ARANAĞME  |   | 
c4 d4 c2B2 A2A2 G2 | 
w:   | 
A2 B2c4B2 B2A2 A4  | c4 d4 c2B2 A2A2 G2 | \
w:   |  ARANAĞME  | 
A2 B2c4B2 B2A2 A4  | 
w:   | 
c4 d4 c2B2 A2A2 G2 | A2 B2c4B2 B2A2 A4  | \
w:   |   | 
c4 d4 c2B2 A2A2 G2 | 
w:  A ra *  ba *  cı   | 
A2 B2c4B2 B2A2 A4  | c4 d4 c2B2 A2A2 G2 | \
w:  a *  ra *  ba *  cı    |  İş te  *  sa *  na   | 
A2 B2c4B2 B2A2 A4  | 
w:  ben  *  ki *  ra *  cı    | 
c4 d4 c2B2 A2A2 G2 | A2 B2c4B2 B2A2 A4  | \
w:  A ra *  ba *  cı   |  a *  ra *  ba *  cı    | 
c4 d4 c2B2 A2A2 G2 | 
w:  İş te  *  sa *  na   | 
A2 B2c4B2 B2A2 A4  | c2d2 e2e4a8 | z4z4z2 z4 z4  | \
w:  ben  *  ki *  ra *  cı    |  A ra ba cı  sür    |  | 
z4 z4 z2z4z4 | 
w:  | 
c4d4c2 B2A2 A2G2  | A2B2 c4 B2B2 A2A4 | \
w:  Yal lah  *  yal *  lah   |  yal *  lah  *  yal *  lah    | 
c4d4c2 B2A2 A2G2  | 
w:  Hay din di  tı kır  mı kır   | 
A2B2 c4 B2B2 A2A4 | c4d4c2 B2A2 A2G2  | \
w:  yal *  lah  *  yal *  lah    |  Yal lah  *  yal *  lah   | 
A2B2 c4 B2B2 A2A4 | 
w:  yal *  lah  *  yal *  lah    | 
c4d4c2 B2A2 A2G2  | A2B2 c4 B2B2 A2A4 | \
w:  Hay din di  tı kır  mı kır   |  yal *  lah  *  yal *  lah    | 
c4d4c2 B2A2 A2G2  | 
w:  ARANAĞME  | 
A2B2 c4 B2B2 A2A4 | c4d4c2 B2A2 A2G2  | \
w:   |   | 
A2B2 c4 B2B2 A2A4 | 
w:   | 
c4d4c2 B2A2 A2G2  | A2B2 c4 B2B2 A2A4 | \
w:  A ra *  ba *  ya   |  da  *  bi *  ne *  lim    | 
c4d4c2 B2A2 A2G2  | 
w:  Be yoğ *  lu *  na   | 
A2B2 c4 B2B2 A2A4 | c4d4c2 B2A2 A2G2  | \
w:  da  *  gi *  de *  lim    |  A ra *  ba *  ya   | 
A2B2 c4 B2B2 A2A4 | 
w:  da  *  bi *  ne *  lim    | 
c4d4c2 B2A2 A2G2  | A2B2 c4 B2B2 A2A4 | \
w:  Be yoğ *  lu *  na   |  da  *  gi *  de *  lim    | 
c2 d2e2 e4 a8  | z4 z4 z2z4z4 | 
w:  A ra ba cı  sür    |  | 
z4z4z2 z4 z4  | c4 d4 c2B2 A2A2 G2 | \
w:  |  Yal lah  *  yal *  lah   | 
A2 B2c4B2 B2A2 A4  | c4 d4 c2B2 A2A2 G2 | 
w:  yal *  lah  *  yal *  lah    |  Hay din di  tı kır  mı kır   | 
A2 B2c4B2 B2A2 A4  | c4 d4 c2B2 A2A2 G2 | \
w:  yal *  lah  *  yal *  lah    |  Yal lah  *  yal *  lah   | 
A2 B2c4B2 B2A2 A4  | 
w:  yal *  lah  *  yal *  lah    | 
c4 d4 c2B2 A2A2 G2 | A2 B2c4B2 B2A2 A4  | \
w:  Hay din di  tı kır  mı kır   |  yal *  lah  *  yal *  lah    | 
c4 d4 c2B2 A2A2 G2 | 
w:  ARANAĞME  | 
A2 B2c4B2 B2A2 A4  | c4 d4 c2B2 A2A2 G2 | \
w:   |   | 
A2 B2c4B2 B2A2 A4  | 
w:   | 
c4 d4 c2B2 A2A2 G2 | A2 B2c2 c2B2 B2A2 A4  | \
w:  Bu  eğ *  len *  ce   |  böy *  le  mi  *  o *  lur    | 
c4 d4 c2B2 A2A2 G2 | 
w:  A man  *  be *  yim   | 
A2 B2c2 c2B2 B2A2 A4  | c4 d4 c2B2 A2A2 G2 | \
w:  li ra la rı  da  boz *  dur    |  Bu  eğ *  len *  ce   | 
A2 B2c2 c2B2 B2A2 A4  | 
w:  böy *  le  mi  *  o *  lur    | 
c4 d4 c2B2 A2A2 G2 | A2 B2c2 c2B2 B2A2 A4  | \
w:  A man  *  be *  yim   |  li ra la rı  da  boz *  dur    | 
c2d2 e2e4a8 | z4z4z2 z4 z4  | 
w:  A ra ba cı  sür    |  | 
z4 z4 z2z4z4 | c4d4c2 B2A2 A2G2  | A2B2 c4 B2B2 A2A4 | \
w:  |  Yal lah  *  yal *  lah   |  yal *  lah  *  yal *  lah    | 
c4d4c2 B2A2 A2G2  | 
w:  Hay din di  tı kır  mı kır   | 
A2B2 c4 B2B2 A2A4 | c4d4c2 B2A2 A2G2  | \
w:  yal *  lah  *  yal *  lah    |  Yal lah  *  yal *  lah   | 
A2B2 c4 B2B2 A2A4 | 
w:  yal *  lah  *  yal *  lah    | 
c4d4c2 B2A2 A2G2  | A2B2 c4 B2B2 A2A4 | |


